storage/app/icons/phosphoricons/thin/dots-nine-thin.svg

<svg xmlns="http://www.w3.org/2000/svg" fill="currentColor" viewBox="0 0 256 256"><path d="M68 60a8 8 0 1 1-8-8 8 8 0 0 1 8 8m60-8a8 8 0 1 0 8 8 8 8 0 0 0-8-8m68 16a8 8 0 1 0-8-8 8 8 0 0 0 8 8M60 120a8 8 0 1 0 8 8 8 8 0 0 0-8-8m68 0a8 8 0 1 0 8 8 8 8 0 0 0-8-8m68 0a8 8 0 1 0 8 8 8 8 0 0 0-8-8M60 188a8 8 0 1 0 8 8 8 8 0 0 0-8-8m68 0a8 8 0 1 0 8 8 8 8 0 0 0-8-8m68 0a8 8 0 1 0 8 8 8 8 0 0 0-8-8"/></svg>

<svg xmlns="http://www.w3.org/2000/svg" viewBox="0 0 256 256" fill="currentColor"><path d="M68,60a8,8,0,1,1-8-8A8,8,0,0,1,68,60Zm60-8a8,8,0,1,0,8,8A8,8,0,0,0,128,52Zm68,16a8,8,0,1,0-8-8A8,8,0,0,0,196,68ZM60,120a8,8,0,1,0,8,8A8,8,0,0,0,60,120Zm68,0a8,8,0,1,0,8,8A8,8,0,0,0,128,120Zm68,0a8,8,0,1,0,8,8A8,8,0,0,0,196,120ZM60,188a8,8,0,1,0,8,8A8,8,0,0,0,60,188Zm68,0a8,8,0,1,0,8,8A8,8,0,0,0,128,188Zm68,0a8,8,0,1,0,8,8A8,8,0,0,0,196,188Z"/></svg>
